icons/pocketcasts.svg

<svg width="32" height="32" viewBox="0 0 32 32" fill="none" xmlns="http://www.w3.org/2000/svg">
<path fill-rule="evenodd" clip-rule="evenodd" d="M3.36627 28.6337C0.910867 26.1783 0 22.1783 0 16C0 9.82167 0.910867 5.82167 3.36627 3.36627C5.82167 0.910867 9.82167 0 16 0C22.1783 0 26.1783 0.910867 28.6337 3.36627C31.0891 5.82167 32 9.82167 32 16C32 22.1783 31.0891 26.1783 28.6337 28.6337C26.1783 31.0891 22.1783 32 16 32C9.82167 32 5.82167 31.0891 3.36627 28.6337Z" fill="#F44336"/>
<path fill-rule="evenodd" clip-rule="evenodd" d="M7.67115 15.9007C7.6198 20.4242 11.1904 24.1607 15.7116 24.3148C15.87 24.3207 15.9953 24.4511 15.995 24.6096V27.0316C15.9949 27.1114 15.9625 27.1877 15.9053 27.2433C15.848 27.2989 15.7707 27.329 15.6909 27.3268C9.5119 27.1609 4.60492 22.0753 4.66013 15.8943C4.71534 9.71325 9.71238 4.71604 15.8934 4.66062C22.0744 4.6052 27.1602 9.512 27.3263 15.691C27.3285 15.7708 27.2984 15.8481 27.2428 15.9054C27.1873 15.9627 27.1109 15.995 27.0311 15.9952H24.6095C24.4509 15.9955 24.3205 15.8702 24.3146 15.7118C24.1606 11.1906 20.424 7.61996 15.9005 7.67132C11.377 7.72267 7.7225 11.3772 7.67115 15.9007ZM9.44619 15.841C9.53001 12.2839 12.4369 9.4435 15.995 9.44206C19.4943 9.44209 22.3762 12.1913 22.541 15.6867C22.5446 15.7673 22.5152 15.8458 22.4594 15.9041C22.4037 15.9623 22.3265 15.9953 22.2459 15.9953H20.3242C20.1703 15.9929 20.0432 15.8745 20.0299 15.7213C19.8833 13.5638 18.0655 11.9033 15.9036 11.9522C13.7416 12.0011 12.0007 13.742 11.9518 15.904C11.903 18.0659 13.5635 19.8837 15.721 20.0303C15.8742 20.0436 15.9926 20.1706 15.995 20.3245V22.2462C15.995 22.3268 15.962 22.404 15.9038 22.4597C15.8455 22.5155 15.7669 22.5449 15.6864 22.5413C12.1323 22.3723 9.36237 19.3981 9.44619 15.841Z" fill="white"/>
</svg>

<svg xmlns="http://www.w3.org/2000/svg" width="32" height="32" fill="none" viewBox="0 0 32 32">
  <path fill="#F44336" fill-rule="evenodd" d="M3.366 28.634C.911 26.178 0 22.178 0 16S.91 5.822 3.366 3.366C5.822.911 9.822 0 16 0s10.178.91 12.634 3.366C31.089 5.822 32 9.822 32 16s-.91 10.178-3.366 12.634C26.178 31.089 22.178 32 16 32s-10.178-.91-12.634-3.366Z" clip-rule="evenodd"/>
  <path fill="#fff" fill-rule="evenodd" d="M7.671 15.9a8.324 8.324 0 0 0 8.04 8.415.294.294 0 0 1 .284.295v2.422a.296.296 0 0 1-.304.295C9.51 27.16 4.605 22.075 4.66 15.894c.054-6.18 5.051-11.178 11.232-11.233 6.181-.056 11.267 4.851 11.433 11.03a.296.296 0 0 1-.295.304h-2.42a.294.294 0 0 1-.295-.283A8.324 8.324 0 0 0 7.67 15.9Zm1.775-.059a6.553 6.553 0 0 1 6.549-6.399c3.5 0 6.381 2.75 6.546 6.245a.295.295 0 0 1-.295.308h-1.922a.3.3 0 0 1-.294-.274 4.044 4.044 0 1 0-4.309 4.31.3.3 0 0 1 .274.294v1.921a.296.296 0 0 1-.309.295 6.553 6.553 0 0 1-6.24-6.7Z" clip-rule="evenodd"/>
</svg>
